X:970
T:Mrs. Judge
R:Other
O:Ireland
C:Turlough Carolan
D:Chieftain's play this vsn...
B:The Complete Works of O'Carolan
S:The Complete Works of O'Carolan
Z:Transcription,Slight rearrangement, chords:Mike Long
M:C
L:1/8
K:G
{F}E>D|\
"Em"B,2E2 E2G2|"D"F>GFE D2B2|"G"B<AG<F "D"A<GF<E|\
"Bm"~D4 {B,C}B,2B,2|"Em"E2F2 G2A2|"G"B>cBA G2 e2|
"Em"e>f g2 "G"B2g2|"D"~f4 "Em"e2e2|"Em"{f}ed B2 B2e2|\
"G"d>edB G2B2|"D"A>GF>G A2G2|
"Bm"{G}F4 E2D2|"G"B2G2 "Am"c2A2|"D"d2B2 "Em"e2B2|\
"C"c<BA<G "D"B<AG<F|"Em"~E4 E2:|
|:GA|\
"G"B2B2 "C"c2B2|"D"BAGF "G"G2d2|"C"e>fg2 "G"B2g2|\
"C"e>fg2 "G"B2g2|"D"fga2 d2a2|"Em"gfge "G"bgbe|
"D"dBde "G"BABc|"Bm"~B4 {Ac}B2g2|"C"gfef g2f2|\
e3f e2d>c|"G"B2cB "C"A2G2|
"D"G2F2 ~E2D2|"C"E>FG>A "G"B2e2|"D"D>EF>G A2d2|\
"Em"B<AB<G "D"B<AG<F|"Em"~E4 {DF}HE2:|
P:Jig- Planxty Judge
M:6/8
L:1/8
|:"Em"EGB EGB|"(C)"GA/G/F/E/ "Bm"FB,B,|"D"DdF "C"EeB|"C"GA/G/"D"F/G/ "Em"E2Z:|
|:"G"Bdg Bdg|"D"g/f/e/d/e/f/ "G"gdB|"C"cc/B/A/G/ "D"AdD|"Bm"BeE "Em"e2d|
"C"e/d/B/d/e "G"d/B/A/B/d|"G"B/A/G/A/B/G/ "D"AFD|\
"C"E/F/GE "D"F/G/AF|"Bm"G/A/BB, "Em"E2Z:|
